shoe-icons/svg/009-flip flops.svg

<svg height="512" viewBox="0 0 64 64" width="512" xmlns="http://www.w3.org/2000/svg"><path d="m47 22 3 4v8h4v-8c0-2-1-4-3-4z" fill="#195c85"/><path d="m61 40a110.545 110.545 0 0 1 -18 2h-40v-4h40a110.545 110.545 0 0 0 18-2z" fill="#7d8d9c"/><path d="m61 36a110.545 110.545 0 0 1 -18 2h-40v-2a2 2 0 0 1 2-2h38a101.984 101.984 0 0 0 15.67-1.576 2 2 0 0 1 2.33 1.976z" fill="#f4f4e6"/><path d="m22 38h10s1.7-12 18-12l-3-4c-18 0-25 16-25 16z" fill="#2d75bb"/></svg>

<?xml version="1.0"?>
<svg xmlns="http://www.w3.org/2000/svg" viewBox="0 0 64 64" width="512" height="512"><g id="Filled_outline" data-name="Filled outline"><path d="M61,40a110.545,110.545,0,0,1-18,2H3V38H43a110.545,110.545,0,0,0,18-2Z" style="fill:#7d8d9c"/><path d="M61,36a110.545,110.545,0,0,1-18,2H3V36a2,2,0,0,1,2-2H43a101.984,101.984,0,0,0,15.67-1.576A2,2,0,0,1,61,34.4Z" style="fill:#f4f4e6"/><path d="M22,38H32s1.7-12,18-12l-3-4C29,22,22,38,22,38Z" style="fill:#2d75bb"/><path d="M47,22l3,4v8h4V26c0-2-1-4-3-4Z" style="fill:#195c85"/><path d="M60.94,32.108a3,3,0,0,0-2.441-.673c-.82.142-2.035.342-3.5.554V26c0-2.484-1.374-5-4-5H47c-12.11,0-19.46,7.087-23.1,12H5a3,3,0,0,0-3,3v6a1,1,0,0,0,1,1H43a110.005,110.005,0,0,0,18.2-2.02A1,1,0,0,0,62,40V34.4A3,3,0,0,0,60.94,32.108Zm-2.108,1.3A1.006,1.006,0,0,1,60,34.4v.772A106.6,106.6,0,0,1,43,37H33.278a12.769,12.769,0,0,1,.83-2H43c2.075,0,4.463-.133,7.1-.4,1.405-.142,2.762-.3,4.034-.474C56.14,33.858,57.8,33.586,58.832,33.406ZM49,32.7c-2.209.2-4.232.3-6,.3H35.376c.093-.122.185-.243.286-.365,2.906-3.54,7.4-5.406,13.338-5.6ZM51,23c1.582,0,2,1.962,2,3v6.258q-.975.124-2,.237V26a1,1,0,0,0-.2-.6L49,23Zm-4.491.011,1.54,2.054C35.31,25.851,31.96,34.256,31.206,37H23.65C25.8,33.247,32.809,23.248,46.509,23.011ZM5,35H22.531c-.538.853-.917,1.543-1.152,2H4V36A1,1,0,0,1,5,35Zm55,4.172A106.625,106.625,0,0,1,43,41H4V39H43a105.921,105.921,0,0,0,17-1.793Z"/></g></svg>
